X: 292
T:Oot Pik Waltz
R:waltz
Z:posted by Robert Loeffler 11/98
M:3/4
L:1/4
K:G
(3D/E/F/|"G"G&gt; F G/B/|"D"A G E/D/|"G"E G&gt; A| G B d|"Em"e&gt;d e/f/|ed B/G/|
"G"B d&gt;e|d2 B/d/|"Em"e&gt;d e/g/|e d B/A/|"G"B d B/A/|"Em"G E D|
"C"C&gt; B, C/E/| "D"D F E/D/| "G"E G&gt; A| G B d||
"Em"e B&gt; A| B2 e|"Bm"d B&gt; A|B2 B|"Am"A&gt; G A/B/|A G E/D/|"Em"E G A|G B d|
"Bm"e B&gt; A|B2 f/e/|d B&gt;G|  B2 B|"Am" A&gt; G A/B/|A G E/D/|"Em"E G E| "D" D
2||
<end>
<start>
